X:3443
L:1/8
M:3/4
K:C
 G2 c4 | dcBcde | G2 c4 | dc e2 g2 | g2 f2 eg | f2 e2 dd | G2 c4 | dc B2 c2 |]

